public/img/filter/snack.svg

<svg width="100" height="100" viewBox="0 0 100 100" fill="none" xmlns="http://www.w3.org/2000/svg">
<rect x="1" y="1" width="98" height="98" rx="14" stroke="#234cad" stroke-width="2"/>
<path d="M43.2319 22.7322C43.2319 20.974 44.6623 19.5437 46.4205 19.5437C47.1729 19.5437 47.8809 19.8013 48.4448 20.2672C48.7589 20.1659 49.0888 20.1137 49.4228 20.1137C51.181 20.1137 52.6114 21.5441 52.6114 23.3022C52.6114 23.4107 52.6058 23.5191 52.5947 23.6271C53.0447 24.1889 53.2954 24.8913 53.2954 25.6205C53.2954 27.3787 51.865 28.809 50.1068 28.809C49.557 28.809 49.0188 28.6661 48.5446 28.3995C48.2055 28.5191 47.8469 28.5809 47.4847 28.5809C45.7265 28.5809 44.2961 27.1506 44.2961 25.3925C44.2961 25.3012 44.3 25.21 44.3077 25.1195C43.6322 24.5209 43.2319 23.6539 43.2319 22.7322ZM45.7501 23.929L46.3888 24.2881L46.1731 24.9882C46.133 25.1184 46.1127 25.2544 46.1127 25.3925C46.1127 26.1489 46.7281 26.7644 47.4847 26.7644C47.7278 26.7644 47.9668 26.6997 48.1758 26.5774L48.7308 26.2523L49.2217 26.6678C49.4725 26.8801 49.7786 26.9924 50.1071 26.9924C50.8636 26.9924 51.4791 26.3769 51.4791 25.6205C51.4791 25.229 51.3105 24.8548 51.0167 24.594L50.5925 24.2178L50.7443 23.6713C50.778 23.5505 50.7949 23.4263 50.7949 23.3022C50.7949 22.5458 50.1795 21.9303 49.4229 21.9303C49.1704 21.9303 48.924 21.9992 48.7104 22.1297L48.0101 22.5569L47.514 21.9037C47.2515 21.5582 46.8531 21.3602 46.4207 21.3602C45.6642 21.3602 45.0487 21.9756 45.0487 22.732C45.0485 23.2272 45.3174 23.6857 45.7501 23.929Z" fill="#234cad"/>
<path d="M35.1249 14.8519C36.3183 14.3821 37.6713 14.9709 38.1411 16.1643C38.3421 16.6751 38.3564 17.2244 38.1908 17.7316C38.3435 17.9178 38.4671 18.1278 38.5563 18.3545C39.026 19.5479 38.4373 20.901 37.244 21.3707C37.1703 21.3997 37.0953 21.4249 37.019 21.4462C36.7579 21.9018 36.3481 22.2596 35.8531 22.4544C34.6597 22.9241 33.3067 22.3354 32.837 21.142C32.6901 20.7688 32.6433 20.3653 32.6975 19.9721C32.5258 19.7739 32.388 19.5471 32.2912 19.3012C31.8214 18.1078 32.4102 16.7547 33.6035 16.285C33.6655 16.2606 33.7284 16.2389 33.7919 16.2199C34.0177 15.6015 34.4993 15.0982 35.1249 14.8519ZM34.9853 16.8809L34.9122 17.4104L34.3794 17.451C34.2803 17.4586 34.1826 17.4811 34.0888 17.518C33.5754 17.7201 33.3221 18.3023 33.5242 18.8158C33.5892 18.9809 33.6969 19.1258 33.8358 19.235L34.2047 19.5249L34.0538 19.9691C33.9767 20.196 33.9823 20.4338 34.0701 20.6568C34.2722 21.1703 34.8544 21.4236 35.3678 21.2215C35.6336 21.1169 35.8426 20.9025 35.9411 20.6334L36.0831 20.2449L36.4946 20.202C36.5856 20.1926 36.6744 20.1709 36.7587 20.1378C37.2721 19.9357 37.5254 19.3535 37.3233 18.8399C37.2558 18.6686 37.1432 18.5197 36.9976 18.4095L36.5205 18.0484L36.8313 17.5371C36.9957 17.2666 37.0237 16.9433 36.9082 16.6498C36.706 16.1363 36.1239 15.883 35.6104 16.0851C35.2742 16.2172 35.0348 16.5222 34.9853 16.8809Z" fill="#234cad"/>
<path d="M26.5978 30.9428C27.0688 30.2495 27.7546 29.7638 28.5416 29.5492C28.6419 29.1837 28.8021 28.8354 29.0176 28.5183C29.5376 27.7529 30.3246 27.2358 31.2336 27.0624C32.1427 26.889 33.0647 27.0799 33.83 27.5999C35.0496 28.4286 35.5918 29.9458 35.2365 31.3327C36.2252 32.4953 36.352 34.2212 35.4655 35.526C34.9455 36.2913 34.1585 36.8085 33.2495 36.9819C33.0305 37.0237 32.811 37.0444 32.5929 37.0444C31.9056 37.0442 31.2341 36.8392 30.653 36.4443C30.5556 36.3782 30.4619 36.3073 30.3722 36.232C29.4063 36.4937 28.36 36.3284 27.5161 35.7551H27.5162C25.9363 34.6816 25.5242 32.5229 26.5978 30.9428ZM27.8446 33.1986C27.927 33.6308 28.173 34.0051 28.537 34.2525H28.5372C29.0289 34.5867 29.6659 34.6292 30.1995 34.3635L30.8551 34.0373L31.313 34.6088C31.4156 34.7368 31.5371 34.8489 31.6739 34.942C32.038 35.1893 32.4765 35.2802 32.9088 35.1975C33.3412 35.1149 33.7154 34.8691 33.9628 34.505C34.446 33.7939 34.2966 32.8201 33.6226 32.288L33.0504 31.8361L33.3678 31.1797C33.7201 30.4512 33.4798 29.558 32.809 29.1023C32.5327 28.9146 32.2134 28.8171 31.8865 28.8171C31.7828 28.8171 31.6783 28.8269 31.5741 28.8468C31.1418 28.9293 30.7676 29.1752 30.5201 29.5392C30.3497 29.79 30.2519 30.0815 30.2371 30.382L30.1969 31.2013L29.3779 31.2445C28.8577 31.2721 28.392 31.5343 28.1002 31.9636C27.8529 32.3277 27.7621 32.7663 27.8446 33.1986Z" fill="#234cad"/>
<path d="M31.3759 50.5139C31.3759 50.026 31.4895 49.544 31.7023 49.1096C31.4875 48.6751 31.3759 48.1975 31.3759 47.7006C31.3759 46.1578 32.4772 44.8679 33.935 44.5749C33.7674 44.1843 33.6769 43.7588 33.6769 43.3209C33.6769 41.5625 35.1074 40.1322 36.8656 40.1322C37.345 40.1322 37.8123 40.2396 38.2371 40.4424C39.0063 39.7061 40.0357 39.2844 41.1249 39.2844C41.4046 39.2844 41.6809 39.3119 41.9513 39.3665C42.1979 39.1209 42.482 38.9182 42.7924 38.7656C42.1602 38.1258 41.7908 37.2536 41.7908 36.3308C41.7908 34.4204 43.3451 32.866 45.2557 32.866C46.093 32.866 46.8802 33.1603 47.5005 33.6908C47.8588 33.5686 48.237 33.5055 48.6201 33.5055C49.3007 33.5055 49.951 33.7017 50.5047 34.0619C51.6607 32.9706 53.462 32.7865 54.8299 33.7159C55.9997 34.5108 56.5461 35.9397 56.2752 37.2795C57.6301 37.5311 58.6869 38.6424 58.8564 40.0241C59.2465 39.9114 59.6902 39.8513 60.1829 39.8936C60.9349 39.9575 61.6008 40.2091 62.1193 40.6172C62.4366 40.5139 62.7702 40.4607 63.1081 40.4607C64.8664 40.4607 66.2968 41.8912 66.2968 43.6494C66.2968 43.7579 66.2913 43.866 66.2803 43.9734C66.7302 44.5352 66.981 45.2378 66.981 45.9674C66.981 46.4938 66.8538 46.9953 66.6241 47.4386C68.4412 47.5432 69.8875 49.0541 69.8875 50.8964C69.8875 51.7625 69.5634 52.5824 69.0022 53.209C69.8863 54.2968 70.3242 55.6964 70.2098 57.1006L65.2688 87H36.8429L31.911 57.1751L31.9018 57.1007C31.8147 56.0322 32.0474 54.9664 32.5532 54.0386C32.4792 53.7501 32.4409 53.4571 32.4409 53.1734C32.4409 53.0822 32.4448 52.9914 32.4524 52.901C31.7763 52.3022 31.3759 51.4352 31.3759 50.5139ZM63.7274 85.1827L68.4016 56.917C68.4747 55.9027 68.1359 54.9337 67.4454 54.1846C66.747 53.4269 65.7949 53.0097 64.7643 53.0097H64.7264C62.7588 53.0097 61.1583 54.5499 61.0826 56.5159L61.0818 56.5342L61.0732 56.6439C61.0734 56.7179 61.072 56.792 61.0691 56.8664L58.8203 85.1827H63.7274ZM56.9978 85.1827L59.2561 56.5809C59.2386 55.6611 58.8815 54.7967 58.2378 54.1277C57.544 53.4068 56.6108 53.0097 55.6102 53.0097C53.5995 53.0097 51.9637 54.6455 51.9637 56.6561V85.1827H56.9978ZM50.147 85.1829V56.6563C50.147 54.6455 48.5111 53.0098 46.5004 53.0098C45.4998 53.0098 44.5666 53.4069 43.8728 54.1278C43.229 54.7968 42.8718 55.6611 42.8545 56.5811L45.1129 85.1829H50.147ZM33.7091 56.917L38.3833 85.1827H43.2903L41.0436 56.9033L41.0415 56.8663C41.0385 56.7918 41.0372 56.7174 41.0373 56.6433L41.0302 56.5523L41.028 56.5158C40.9523 54.5498 39.3518 53.0095 37.3842 53.0095H37.3463C36.3158 53.0095 35.3635 53.4267 34.6651 54.1845C33.9748 54.9337 33.636 55.9027 33.7091 56.917ZM33.8947 51.7102L34.4525 52.0241C35.3133 51.4872 36.3166 51.1933 37.3464 51.1933H37.3843C39.2911 51.1933 40.9678 52.1589 41.9449 53.6381C42.1258 53.3667 42.3326 53.1091 42.5641 52.8685C43.6036 51.7882 45.0016 51.1933 46.5008 51.1933C48.4003 51.1933 50.0764 52.1677 51.0555 53.643C52.0348 52.1679 53.7109 51.1933 55.6104 51.1933C57.1095 51.1933 58.5075 51.7882 59.5469 52.8685C59.7785 53.1091 59.9852 53.3666 60.1662 53.6381C61.1434 52.1589 62.8199 51.1933 64.7267 51.1933H64.7646C65.7857 51.1933 66.7807 51.4823 67.6365 52.0103C67.9116 51.7101 68.0708 51.3143 68.0708 50.896C68.0708 49.9878 67.3315 49.249 66.4226 49.249C66.1195 49.249 65.8234 49.3317 65.5665 49.4882L64.8671 49.9142L64.3712 49.2624C64.2621 49.1189 64.1293 48.9938 63.9769 48.8907L62.4265 47.8411L64.2105 47.2731C64.7809 47.0915 65.1642 46.5666 65.1642 45.9671C65.1642 45.5751 64.9957 45.2009 64.7019 44.9403L64.2771 44.5635L64.4299 44.0164C64.4631 43.8976 64.4799 43.774 64.4799 43.6493C64.4799 42.8928 63.8644 42.2772 63.1078 42.2772C62.8548 42.2772 62.6085 42.3458 62.3955 42.476L61.6951 42.9037L61.1988 42.2501C60.899 41.8553 60.3969 41.735 60.0285 41.7035C59.2227 41.6357 58.6343 42.113 58.2831 42.3989C58.1743 42.4872 58.0805 42.5636 57.9782 42.6256L57.2719 43.0529L56.7839 42.3968L56.339 41.8117L56.7716 41.2601C56.9626 41.0165 57.0636 40.7241 57.0636 40.4146C57.0636 39.663 56.4562 39.0506 55.7065 39.0426L55.1947 39.0718L54.9023 38.6913C54.8177 38.5812 54.7233 38.4846 54.6221 38.4046L54.0505 37.9529L54.3675 37.2968C54.7199 36.5677 54.4798 35.6743 53.809 35.2184C53.0575 34.7075 52.0305 34.9039 51.5206 35.6548C51.4903 35.6993 51.4603 35.7505 51.431 35.8065L50.7829 37.0485L49.9135 35.95C49.5978 35.5511 49.1263 35.3222 48.6202 35.3222C48.3171 35.3222 48.021 35.4049 47.7641 35.5614L47.065 35.9873L46.5691 35.3359C46.2531 34.9209 45.7744 34.6828 45.2559 34.6828C44.3471 34.6828 43.6077 35.4221 43.6077 36.331C43.6077 36.9254 43.9303 37.4757 44.4495 37.7672L45.0865 38.1247L44.8738 38.8236C44.8271 38.9774 44.8025 39.1355 44.8007 39.2941C44.8021 39.3183 44.803 39.3429 44.803 39.3682V40.1633L44.0148 40.2684C43.6155 40.3217 43.2609 40.5488 43.042 40.8915L42.6449 41.513L41.9552 41.252C41.6908 41.152 41.4114 41.1012 41.125 41.1012C40.336 41.1012 39.6026 41.4927 39.163 42.1483L38.5742 43.0266L37.7947 42.3121C37.5393 42.0778 37.2093 41.949 36.8656 41.949C36.109 41.949 35.4935 42.5646 35.4935 43.3211C35.4935 43.8157 35.7626 44.2743 36.1957 44.5181L36.8376 44.8794L36.6167 45.5821C36.5956 45.6495 36.5799 45.7261 36.5701 45.8103L36.4137 47.1591L35.2268 46.4996C35.0264 46.3883 34.7975 46.3295 34.5647 46.3295C33.8081 46.3295 33.1926 46.9445 33.1926 47.7004C33.1926 48.0108 33.2936 48.3035 33.4846 48.5472L33.9249 49.1086L33.4836 49.6688C33.2931 49.9109 33.1925 50.2028 33.1925 50.5132C33.1925 51.0078 33.4616 51.4664 33.8947 51.7102Z" fill="#234cad"/>
</svg>

<svg width="60" height="60" viewBox="0 0 100 100" fill="none" xmlns="http://www.w3.org/2000/svg">
  <rect x="1" y="1" width="98" height="98" rx="14" stroke="#234cad" stroke-width="2"/>
  <path d="M43.23 22.73a3.2 3.2 0 015.21-2.46 3.19 3.19 0 014.15 3.36 3.19 3.19 0 01-4.05 4.77 3.19 3.19 0 01-4.23-3.28 3.2 3.2 0 01-1.08-2.39zm2.52 1.2l.64.36-.22.7a1.37 1.37 0 002 1.59l.56-.33.5.42a1.37 1.37 0 001.8-2.07l-.44-.38.15-.55a1.37 1.37 0 00-2.03-1.54l-.7.43-.5-.66a1.37 1.37 0 10-1.76 2.03zM35.12 14.85a2.33 2.33 0 013.07 2.88 2.32 2.32 0 01-1.17 3.72 2.33 2.33 0 01-4.32-1.48 2.33 2.33 0 011.1-3.75c.22-.62.7-1.12 1.32-1.37zM35 16.88l-.08.53-.53.04a1 1 0 00-.54 1.79l.36.28-.15.45a1 1 0 001.89.66l.14-.39.41-.04a1 1 0 00.5-1.8l-.47-.35.31-.51a1 1 0 10-1.85-.66zM26.6 30.94a3.43 3.43 0 011.94-1.4 3.46 3.46 0 016.7 1.8 3.48 3.48 0 01-2.65 5.7 3.44 3.44 0 01-2.22-.8 3.47 3.47 0 01-3.77-5.29zm1.24 2.26a1.65 1.65 0 002.35 1.16l.67-.32.45.57a1.66 1.66 0 002.65-.1c.49-.72.34-1.69-.34-2.22l-.57-.45.32-.66a1.66 1.66 0 00-1.8-2.33 1.64 1.64 0 00-1.33 1.53l-.04.82-.82.04a1.64 1.64 0 00-1.54 1.96zM31.38 50.51c0-.48.11-.97.32-1.4a3.2 3.2 0 012.23-4.53 3.18 3.18 0 014.3-4.14 4.17 4.17 0 013.72-1.07c.25-.25.53-.45.84-.6a3.47 3.47 0 014.71-5.08 3.47 3.47 0 013 .37 3.47 3.47 0 015.78 3.22 3.2 3.2 0 012.58 2.74c.39-.1.83-.17 1.32-.13a3.6 3.6 0 011.94.73 3.2 3.2 0 014.16 3.35 3.2 3.2 0 01.34 3.47A3.47 3.47 0 0169 53.2a5.48 5.48 0 011.21 3.9L65.27 87H36.84l-4.93-29.82v-.08a5.48 5.48 0 01.64-3.06 3.5 3.5 0 01-.1-1.14 3.2 3.2 0 01-1.07-2.39zm32.35 34.67l4.67-28.26a3.6 3.6 0 00-.95-2.74 3.6 3.6 0 00-2.69-1.17h-.03a3.64 3.64 0 00-3.65 3.5v.13l-.01.23-2.25 28.31h4.9zm-6.73 0l2.26-28.6a3.62 3.62 0 00-3.65-3.57 3.65 3.65 0 00-3.65 3.65v28.52H57zm-6.85 0V56.66a3.65 3.65 0 00-7.3-.08l2.26 28.6h5.04zM33.7 56.92l4.67 28.26h4.91L41.04 56.9v-.03-.23l-.01-.09v-.03A3.64 3.64 0 0037.38 53h-.03a3.6 3.6 0 00-2.68 1.17 3.6 3.6 0 00-.96 2.74zm.18-5.21l.56.31a5.48 5.48 0 012.9-.83h.03c1.91 0 3.59.97 4.56 2.45a5.55 5.55 0 014.56-2.45c1.9 0 3.58.98 4.56 2.45a5.46 5.46 0 019.1 0 5.45 5.45 0 014.57-2.45h.03c1.03 0 2.02.3 2.88.82a1.65 1.65 0 00-2.07-2.52l-.7.42-.5-.65c-.1-.14-.24-.27-.4-.37l-1.54-1.05 1.78-.57a1.37 1.37 0 00.5-2.33l-.43-.38.15-.54a1.37 1.37 0 00-2.03-1.54l-.7.42-.5-.65c-.3-.4-.8-.52-1.17-.55-.8-.06-1.4.41-1.75.7-.1.09-.2.16-.3.23l-.7.42-.5-.65-.44-.59.43-.55a1.37 1.37 0 00-1.07-2.22l-.5.03-.3-.38c-.08-.1-.18-.2-.28-.29l-.57-.45.32-.65a1.65 1.65 0 00-2.94-1.49l-.65 1.24-.87-1.1a1.64 1.64 0 00-2.15-.39l-.7.43-.5-.65c-.3-.42-.79-.66-1.3-.66a1.65 1.65 0 00-.81 3.09l.64.35-.22.7a1.68 1.68 0 00-.07.55v.8l-.79.1c-.4.05-.75.28-.97.62l-.4.62-.68-.26a2.36 2.36 0 00-2.8.9l-.59.88-.78-.72a1.37 1.37 0 10-1.6 2.2l.65.37-.22.7-.05.23-.16 1.35-1.18-.66a1.37 1.37 0 00-1.74 2.05l.43.56-.44.56a1.38 1.38 0 00.41 2.04z" fill="#234cad"/>
</svg>
